!!!!SEGMENT: pl-kj--bj-muz-1603-iii-1--003_zelenski-wladyslaw--sechs-charakterstucke-op-17-no-3-tanz.krn
!!!cenid: 18xx:3682
!!!COM: Żeleński, Władysław
!!!COM-rismid: pe41024455
!!!CDT:
!!!CNT:
!!!GTL: Sechs Charakterstücke op. 17
!!!OTL: No. 3 Tanz
!!!PDT: 1872
!!!AGN:
!!!SMS-siglum: PL-Kj
!!!SMS-shelfmark: BJ Muz. 1603 III 2
!!!SMS-shelfwork: 003 G
!!!SMS-variant:
!!!SMS-altvar:
!!!NIFC-rismid:
!!!URL-scan: https://polona.pl/item/sechs-charakterstucke-fur-pianoforte-op-17-h-2,MTIzNzQyODQ2/0/#info:metadata
!!!ONB-nifc:
!!!OMD: Mouvement de Valse.
!!!key: A-
**kern	**kern	**dynam
*part2	*part1	*part1
*staff2	*staff1	*
*I"[Piano]	*I"[Piano]	*
*I'	*I'	*
*Ipiano	*Ipiano	*
*ICklav	*ICklav	*
*clefF4	*clefG2	*
*kcancel	*kcancel	*
*k[b-e-a-d-]	*k[b-e-a-d-]	*
*A-:	*A-:	*
*M3/4	*M3/4	*
*>[A,A1,A,A2,B,B1,B,B2,C]	*>[A,A1,A,A2,B,B1,B,B2,C]	*
=1	=1	=1
*>A	*>A	*>A
*	*ped	*
!	!	!LO:DY:t=%s ed espressivo
8AA-\L	4r	p
8E-\	.	.
8A-\	4.ccc 4.cc\	.
8c\	.	.
8A-\	.	.
*	*Xped	*
8E-\J	(8ff\	.
=2	=2	=2
8BB-\L	2aa- 2a-^\	.
8E-\	.	.
8G\	.	.
8d-\	.	.
8G\	4gg 4g\)	.
8E-\J	.	.
=3	=3	=3
*	*ped	*
8C\L	4r	.
8E-\	.	.
8A-\	4.aa- 4.a-\	.
8e-\	.	.
8A-\	.	.
*	*Xped	*
8E-\J	(8cc\	.
=4	=4	=4
8D-\L	2gg 2g^\	.
8G\	.	.
8B-\	.	.
8e-\	.	.
8B-\	4ff 4f\	.
8G\J	.	.
=5	=5	=5
*	*ped	*
(8C\L	4ee- 4e-/)	.
8E-\	.	.
8A-\	(4aa- 4a-\	<
8c\	.	.
*clefG2	*	*
8e-\	4ccc 4cc\	.
8a-\J	.	.
=6	=6	=6
*	*Xped	*
8g/L	4eee- 4ee-\)	.
8b-/	.	.
8b--/	(4ccc 4cc\	.
8g-X/	.	.
8f/	4ddd- 4dd-\	.
8a-/J	.	[[
!!LO:LB:g=original
=7	=7	=7
8gn/L	4bb- 4b-\	>
8f-X/	.	.
8e-/	4ccc 4cc\	.
8g-X/	.	.
8fn/	4aa- 4a-\	.
8dn/J	.	.
=8	=8	=8
*	*ped	*
8d-X/L	2bb- 2b-\	.
8g/	.	.
8e-/	.	.
8d-/	.	.
*clefF4	*	*
8G/	4ee- 4e-/)	]]
*	*Xped	*
8E-/J)	.	.
=9	=9	=9
*	*ped	*
8AA-\L	4r	.
8E-\	.	.
8A-\	4.ccc 4.cc\	.
8c\	.	.
8A-\	.	.
*	*Xped	*
8E-\J	(8ff\	.
=10	=10	=10
8BB-\L	2aa- 2a-^\	.
8E-\	.	.
8G\	.	.
8d-\	.	.
8G\	4gg 4g\)	.
8E-\J	.	.
=11	=11	=11
*ped	*	*
!	!	!LO:HP:t=crescendo un poco
8C\L	4r	<
8E-\	.	.
8A-\	4.eee- 4.ee-\	.
8e-\	.	.
8A-\	.	.
8E-\J	(8aa-\	.
=12	=12	=12
8E-\L	2ccc 2cc^\	.
8A-\	.	.
8c\	.	.
8g-X\	.	.
8c\	4bb- 4b-\	.
*Xped	*	*
8A-\J	.	.
=13	=13	=13
*ped	*	*
(<8F/L	4aa- 4a-\)	<
8A-/	.	.
*clefG2	*	*
8d-/	(4ddd- 4dd-\	.
8f/	.	.
8a-/	4fff 4ff\	.
8dd-/J	.	.
!!LO:LB:g=original
=14	=14	=14
*Xped	*	*
8ff\L	4aaa- 4aa-\)	.
8dd-\	.	.
8b-\	(4ggg 4gg\	.
8dd-\	.	.
8cc-X\	4fff 4ff\	.
8a-\J	.	[[
=15	=15	=15
*	*ped	*
8g/L	4eee- 4ee-\)	>
8b-/	.	.
8g/	(4bb- 4b-\	.
8e-/	.	.
8d-/	4ccc 4cc\	.
*	*Xped	*
8e-/J	.	.
*clefF4	*	*
=16	=16	=16
*	*ped	*
8c\L	4aa- 4a-\)	.
8e-\	.	.
8c\	4r	.
8E-\	.	.
8A-\	4r	]]
*	*Xped	*
8E-\J)	.	.
=17	=17	=17
*	*^	*
*	*	*ped	*
!	!	!	!LO:DY:t=%s leggiero
8AA-\L	4r	4ryy	p
8E-\	.	.	.
8A-\	(4ccc/	8cc\L	.
8c\	.	8ee-\	.
8A-\	4ff/	8ff\	.
*	*	*Xped	*
8E-\J	.	8ee-\J	.
=18	=18	=18	=18
8BB-\L	2aa- 2a-^/	8rdd	.
8E-\	.	8dd-\L	.
8G\	.	8ee-\	.
8d-\	.	8dd-\	.
8G\	4gg 4g/)	8g\	.
8E-\J	.	8dd-\J	.
=19	=19	=19	=19
*	*	*ped	*
8C\L	4r	4ryy	.
8E-\	.	.	.
8A-\	(4.aa-/	8a-\L	.
8e-\	.	8ee-\	.
8A-\	.	8ff\	.
*	*	*Xped	*
8E-\J	8cc/	8cc\J	.
=20	=20	=20	=20
8D-\L	2gg 2g^/	8rdd	.
8G\	.	8b-\L	.
8B-\	.	8cc\	.
8e-\	.	8b-\	.
8B-\	4ff/	8ff 8f\	.
8G\J	.	8b-\J	.
!!LO:LB:g=original
=21	=21	=21	=21
*ped	*	*	*
(8C\L	8ee- 8e-/)	4ryy	<
8E-\	8r	.	.
8A-\	(8gg/L	4ee-\	.
8c\	8aa-/	.	.
*clefG2	*	*	*
8e-\	8bb-/	4ryy	.
8a-\J	8ccc/J	.	[[
=22	=22	=22	=22
8g/L	8bb-\L	8eee-/	.
*Xped	*	*	*
8b-/	8ee-\	8ryy	.
8b--/	8bb-\	4ryy	.
8g-X/	8ccc\	.	.
8f/	8aa-\	8ddd-/	.
8a-/J	8dd-\J	8ryy	.
=23	=23	=23	=23
8gn/L	8aa-\L	4ryy	.
8f-X/	8bb-\	.	.
8e-/	8gg-X\	8ccc/	.
8g-X/	8cc\	8ryy	.
8fn/	8ggn\	4ryy	.
8dn/J	8aa-\J	.	.
=24	=24	=24	=24
*	*ped	*	*
8d-X/L	8ff\L	8bb-/	.
8g/	8b-\	8ryy	.
8e-/	8ff\	4ryy	.
8d-/	8gg\	.	.
*clefF4	*	*	*
8G/	8b-\	8ee-/	.
*	*Xped	*	*
8E-/J)	8dd-\J)	8ryy	.
=25	=25	=25	=25
*	*ped	*	*
!	!LO:N:vis=2	!	!
8AA-\L	8cc\L	(>2cc^>/	.
8E-\	8ee-\	.	.
8A-\	8ccc\	.	.
8c\	8gg\	.	.
8A-\	8f\	4ff/	.
*	*Xped	*	*
8E-\J	8ee-\J	.	.
=26	=26	=26	=26
!	!LO:N:vis=2	!	!
8BB-\L	8a-\L	2aa- 2a-/	.
8E-\	8dd-\	.	.
8G\	8ee-\	.	.
8d-\	8dd-\	.	.
8G\	8g\	4gg 4g/)	.
8E-\J	8dd-\J	.	.
!!LO:LB:g=original
=27	=27	=27	=27
*ped	*	*	*
!	!LO:N:vis=2	!	!
8C\L	8ee-\L	(>2ee-^>/	.
8E-\	8aa-\	.	.
8A-\	8eee-\	.	.
8e-\	8bb-\J	.	.
8A-\	8a-\L	4aa- 4a-/)	.
8E-\J	8ee-\J	.	.
=28	=28	=28	=28
!	!LO:N:vis=2	!	!
8E-\L	8cc\L	(>2ccc 2cc/	.
8A-\	8gg-X\	.	.
8c\	8aa-\	.	.
8g-X\	8gg-\	.	.
8c\	8b-\	4bb- 4b-/)	.
*Xped	*	*	*
8A-\J	8gg-\J	.	.
=29	=29	=29	=29
*ped	*	*	*
(8F/L	8aa- 8a-\	4ryy	>
8A-/	8r	.	.
*clefG2	*	*	*
*	*v	*v	*
*	*8va	*
*	*^	*
8d-/	(8ccc/L	4aa-\	.
8f/	8ddd-/	.	.
8a-/	8eee-/	4ryy	.
8dd-/J	8fff/J	.	]]
=30	=30	=30	=30
*Xped	*	*	*
8ff\L	8ddd-\L	8aaa-/	.
8dd-\	8aa-\	8ryy	.
8b-\	8eeen\	4ryy	.
8dd-\	8ggg\	.	.
8cc-X\	8aa-\	8fff/	.
8a-\J	8ff\J	8ryy	.
*	*v	*v	*
*	*X8va	*
=31	=31	=31
*	*^	*
8g/L	8bb-\L	4eee-/	.
8b-/	8ee-\	.	.
8g/	8gg\	4ryy	.
8e-/	8bb-\	.	.
8d-/	8ee-\	8ccc/	.
8e-/J	8cc\J)	8ryy	.
*	*v	*v	*
*clefF4	*	*
=32	=32	=32
*ped	*	*
.	(8qaa-/	.
8c\L	4a-/)	.
8e-\	.	.
8c\	4r	.
8E-\	.	.
8AA-\J)	4r	.
*Xped	*	*
8r	.	.
!!LO:PB:g=original
=33	=33	=33
*ped	*	*
4F'\	4r	p
*Xped	*	*
!	!LO:TUP:a	!
4f 4c'\	(12aa-\L	.
.	12bb-\	.
.	12aa-\J	.
!	!LO:TUP:a	!
4F'\	12dd-\L	.
.	12cc\	.
.	12dd-\J	.
=34	=34	=34
*ped	*Xtuplet	*
4a- 4c'\	12aa-\L	.
.	12bb-\	.
.	12aa-\J	.
*Xped	*	*
4F#X'\	12ddn\L	.
.	12cc#X\	.
.	12dd\J	.
4a- 4c'\	12aa-\L	.
.	12bb-\	.
.	12aa-\J)	.
*clefG2	*	*
=35	=35	=35
*ped	*	*
4G'/	(12ddn\L	<
.	12aa-\	.
.	12gg\J	.
4bn 4dn'/	12dddn\L	.
*	*8va	*
.	12ddd\	.
.	12ggg\J	.
*Xped	*	*
4G'/	12dddd\L	.
.	12aaa-\	.
.	12ggg\J	.
*	*X8va	*
=36	=36	=36
*ped	*	*
4c'/	12fff\L	.
.	12eee-\	[ >
.	12dddn\J	.
*Xped	*	*
4ee- 4g'\	12ccc\L	.
.	12bb-\	.
.	12aa-\J	.
4r	12gg\L	.
.	12aa-\	.
.	12ff\J	.
*clefF4	*	*
=37	=37	=37
!LO:TX:b:i:t=simile	!	!
4C'/	4ee-\)	.
!	!	!LO:DY:rj
4e- 4G'\	(12ee-\L	] p
.	12ff\	.
.	12ee-\J	.
4C'/	12g/L	.
.	12a-/	.
.	12g/J	.
!!LO:LB:g=original
=38	=38	=38
4e- 4G'\	12ee-\L	.
.	12ff\	.
.	12ee-\J	.
4C#X'/	12an/L	.
.	12g#X/	.
.	12a/J	.
4e- 4G'\	12ee-\L	.
.	12ff\	.
.	12ee-\J)	.
=39	=39	=39
*ped	*	*
4Dn'\	(12an\L	.
.	12ee-\	.
.	12ddn\J	.
4f#X 4An'\	12aan\L	.
.	12aa\	.
.	12dddn\J	.
*Xped	*	*
4D'\	12aaan\L	.
.	12eee-\	.
.	12ddd\J	.
=40	=40	=40
*ped	*	*
4G'\	12ccc\L	.
.	12bb-\	.
.	12aan\J	.
*Xped	*	*
4b- 4dn'\	12gg\L	.
.	12ffn\	.
.	12ee-\J	.
4r	12ddn\L	.
.	12ee-\	.
.	12cc\J	.
=41	=41	=41
*	*^	*
4GG/	4b-'\)	4ryy	.
4B- 4D-X\	12b-\L	4een'>^>/	<
.	12cc\	.	.
.	12b-\J	.	.
4GG/	12en\L	4ryy	.
.	12d#X\	.	.
.	12e\J	.	.
=42	=42	=42	=42
4B- 4D-\	12b-\L	4ff'>^>/	.
.	12cc\	.	.
.	12b-\J	.	.
4FF/	12f\L	4ryy	.
.	12en\	.	.
.	12f\J	.	[[
4B- 4D-\	12b-\L	4ff'>^>/	.
.	12cc\	.	.
.	12b-\J	.	.
!!LO:LB:g=original
=43	=43	=43	=43
4EEn/	&(12g\L	[>4gg/	<
.	12b-\	.	.
.	12an\J	.	.
4B- 4D-\	12b-\L	8gg/)]	.
.	12ee-\	.	.
.	.	8ryy	.
.	12ddn\J	.	[
4EE/	12dd-X\L	4ryy	.
.	12gg\	.	.
.	12cc\J	.	.
*	*v	*v	*
=44	=44	=44
4FF/	12b-X/L	.
.	12an/	>
.	12a-X/J	.
4A- 4C\	12g/L	.
.	12cc/	.
.	12f/J	.
4FF#X/	12en/L	.
.	12e-X/	.
.	12dn/J&)	]]
=45	=45	=45
*	*^	*
!	!	!	!LO:HP:t=poco cresc.
4G 4E-\	12gn\L	4cc'>/	<
.	12a-\	.	.
.	12g\J	.	.
4GG/	12c\L	4ryy	.
.	12Bn\	.	.
.	12c\J	.	.
4A- 4F\	12f\L	4cc'>/	.
.	12g\	.	.
.	12f\J	.	.
=46	=46	=46	=46
4GG/	(12c\L	4ryy	.
.	12Bn\	.	.
.	12c\J	.	.
4G\	12en\L	4cc'>/	>
.	12f\	.	.
.	12e\J	.	.
4GG/	12c\L	4ryy	.
.	12B\	.	.
.	12c\J	.	]]
!!LO:LB:g=original
=47	=47	=47	=47
4c 4F#X\	12e-X\L	4a-'>/	>
.	12f\	.	.
.	12e-\J	.	.
4GG/	12c\L	4ryy	.
.	12Bn\	.	.
.	12c\J	.	.
4Gn 4F#\	12dn\L	4g'>/	.
.	12e-\	.	]]
.	12d\J)	.	.
*	*v	*v	*
=48	=48	=48
*ped	*	*
4G 4E-\	(12c/L	.
.	12e-/	.
.	12g/J	.
4CC/	12cc\L	.
.	12ee-\	.
.	12gg\J	.
*Xped	*	*
4r	8ccc\)	.
.	8r	.
=49	=49	=49
*ped	*	*
!	!	!LO:DY:t=%s una corda
4BB-'/	4r	pp
*Xped	*	*
4d- 4F'\	(12dd-X\L	.
.	12ee-\	.
.	12dd-\J	.
4BB-'/	12g-X/L	.
.	12f/	.
.	12g-/J	.
=50	=50	=50
!LO:TX:b:i:t=simile	!	!
4d- 4F'\	12dd-\L	.
.	12ee-\	.
.	12dd-\J	.
4BBn'/	12gn/L	.
.	12f#X/	.
.	12g/J	.
4d- 4F'\	12dd-\L	.
.	12ee-\	.
.	12dd-\J	.
=51	=51	=51
*ped	*	*
4C'/	12g\L	<
.	12dd-\	.
.	12cc\J	.
4en 4G'\	12gg\L	.
.	12gg\	.
.	12ccc\J	.
4C'/	12ggg\L	.
*Xped	*	*
.	12ddd-\	.
.	12ccc\J	[[
!!LO:LB:g=original
=52	=52	=52
*ped	*	*
4F'\	12bb-\L	.
.	12aa-\	.
.	12gg\J	.
*Xped	*	*
4a- 4c'\	12ff\L	.
.	12ee-\	.
.	12dd-\J	.
4r	12cc\L	.
.	12dd-\	.
.	12b-\J	.
=53	=53	=53
!LO:TX:b:i:t=simile	!	!
4FF'/	4a-/)	.
4A- 4C'\	(12a-/L	.
.	12b-/	.
.	12a-/J	.
4FF'/	12d-/L	.
.	12c/	.
.	12d-/J	.
=54	=54	=54
4A- 4C'\	12a-/L	.
.	12b-/	.
.	12a-/J	.
4FF#X'/	12dn/L	.
.	12c#X/	.
.	12d/J	.
4A- 4C'\	12a-/L	.
.	12b-/	.
.	12a-/J	.
=55	=55	=55
*ped	*	*
4GG'/	12dn/L	<
.	12a-/	.
.	12g/J	.
4Bn 4Dn'\	12ddn\L	.
.	12dd\	.
.	12gg\J	.
4GG'/	12dddn\L	.
*Xped	*	*
.	12aa-\	.
.	12gg\J	[
!!LO:LB:g=original
=56	=56	=56
*ped	*	*
4C'/	12ff\L	.
.	12ee-\	>
.	12ddn\J	.
*Xped	*	*
4e- 4G'\	12cc\L	.
.	12b-\	.
.	12a-\J	.
4r	12g/L	.
.	12a-/	.
.	12f/J	]]
=57	=57	=57
*	*^	*
*ped	*	*	*
!LO:TX:a:i:t=tre corde	!	!	!
4CC'/	4e-'/)	4ryy	.
!	!	!	!LO:HP:t=cresc. poco a poco
4G-X 4AAn'\	(12e-/L	12ryy	<
.	12an/	6a\	.
.	12e-/J	.	.
*Xped	*	*	*
4CC-X'/	12An/L	4ryy	.
.	12e-/	.	.
.	12A/J	.	.
=58	=58	=58	=58
*ped	*	*	*
4G 4BB-\	12e-/L	12ryy	.
.	12cc^>/	6cc\	.
.	12e-/J	.	.
4BBB-'/	12B-/L	4ryy	.
*Xped	*	*	*
.	12e-/	.	.
.	12B-/J	.	.
4G 4BB-'\	12e-/L	12ryy	.
.	12b-^>/	6b-\	.
.	12e-/J)	.	.
=59	=59	=59	=59
*ped	*	*	*
4BBB-'/	(12a-^>/L	12ryy	.
.	12ee-/	6ee-\	.
.	12a-/J	.	.
4B- 4F'\	12e-/L	4ryy	.
.	12a-/	.	.
*Xped	*	*	*
.	12e-/J	.	.
4BBB-'/	12a-/L	12ryy	.
.	12ddn/	6dd\	.
.	12a-/J	.	.
*	*v	*v	*
!!LO:PB:g=original
=60	=60	=60
*ped	*	*
4B- 4E-'\	12ee-L 12g\	.
.	12gg\	.
.	12ff\J	.
*Xped	*	*
4EE-'/	12ee-\L	.
.	12ddn\	.
.	12cc\J	.
4r	12b-/L	.
.	12an/	.
.	12b-/J)	.
=61	=61	=61
*	*^	*
!	!	!	!LO:DY:t=sempre più %s
4C'/	(12ee-\L	2ryy	f
.	12ff\	.	.
.	12ee-\J	.	.
4e- 4G-X'\	12an/L	.	.
.	12g#X/	.	.
.	12a/J	.	.
4C-X'/	12ee-\L	12ryy	.
.	12aan\	6aan/	.
.	12an\J	.	.
=62	=62	=62	=62
4e- 4Gn'\	12ee-\L	12ryy	.
.	12ccc\	6ccc/	.
.	12ee-\J	.	.
4BB-'/	12b-\L	4ryy	.
.	12ee-\	.	.
.	12b-\J	.	.
4e- 4G'\	12ee-\L	12ryy	.
.	12bb-\	6bb-/	.
.	12b-\J	.	.
=63	=63	=63	=63
*ped	*	*	*
4f 4B-\	12ee-\L	12ryy	.
.	12aa-\	6aa-X/	.
.	12a-\J	.	.
4BB-/	12cc\L	4ryy	.
.	12a-\	.	.
.	12cc\J	.	.
*Xped	*	*	*
4f 4B-\	12ddn\L	4ryy	.
.	12a-\	.	.
.	12dd\J)	.	.
!!LO:LB:g=original
=64	=64	=64	=64
*ped	*	*	*
4e- 4B- 4E-\	(12g\L	8ee-/	.
.	12gg\	.	.
.	.	8ryy	.
.	12ff\J	.	.
*Xped	*	*	*
4EE-/	12ee-\L	4ryy	.
.	12dd-\	.	.
.	12f\J	.	.
4r	12d-\L	8b-/	.
.	12g\	.	.
.	.	8ryy	.
.	12B-\J	.	.
*	*v	*v	*
=65	=65	=65
*ped	*	*
8AA-\L	8a- 8c/)	.
8E-\	8r	f
8A-\	4.ccc 4.cc\	.
8c\	.	.
8A-\	.	.
*Xped	*	*
8E-\J	(8ff\	.
=66	=66	=66
8BB-\L	2aa- 2a-^\	.
8E-\	.	.
8G\	.	.
8d-\	.	.
8G\	4gg 4g\)	.
8E-\J	.	.
=67	=67	=67
*ped	*	*
8C\L	4r	.
8E-\	.	.
8A-\	4.aa- 4.a-\	.
8e-\	.	.
8A-\	.	.
*Xped	*	*
8E-\J	(8cc\	.
=68	=68	=68
8D-\L	2gg 2g^\	.
8G\	.	.
8B-\	.	.
8e-\	.	.
8B-\	4ff 4f\	.
8G\J	.	.
=69	=69	=69
*ped	*	*
8C\L	8ee- 8e-\)	<
8E-\	8r	.
8A-\	(4aa- 4a-\	.
8c\	.	.
*clefG2	*	*
8e-\	4ccc 4cc\	.
8a-\J	.	.
!!LO:LB:g=original
=70	=70	=70
8g/L	4eee- 4ee-\)	.
*Xped	*	*
8b-/	.	.
8b--/	(4ccc 4cc\	[
8g-X/	.	.
8f/	4ddd- 4dd-\	.
8a-/J	.	.
=71	=71	=71
8gn/L	4bb- 4b-\	.
8f-X/	.	.
8e-/	4ccc 4cc\	>
8g-X/	.	.
8fn/	4aa- 4a-\	.
8dn/J	.	.
=72	=72	=72
*ped	*	*
8d-X/L	2bb- 2b-\	.
8gn/	.	.
8e-/	.	.
8d-/	.	.
*clefF4	*	*
8G/	4ee- 4e-\)	]
8E-/J	.	.
*Xped	*	*
=73	=73	=73
*	*^	*
*ped	*	*	*
8AA-\L	4r	4ryy	.
8E-\	.	.	.
8A-\	8cc\L	(>4ccc/	p
8c\	8ee-\	.	.
8A-\	8ff\	4ff/	.
*Xped	*	*	*
8E-\J	8ee-\J	.	.
=74	=74	=74	=74
8BB-\L	8rdd	2aa- 2a-^>/	.
8E-\	8dd-\L	.	.
8G\	8ee-\	.	.
8d-\	8dd-\	.	.
8G\	8g\	4gg 4g/)	.
8E-\J	8dd-\J	.	.
=75	=75	=75	=75
*ped	*	*	*
8C\L	4r	4ryy	.
8E-\	.	.	.
8A-\	(8ee-\L	4eee-^>/	.
8e-\	8aa-\	.	.
8A-\	8bb-\	8ryy	.
8E-\J	8aa-\J	8aa-/	.
=76	=76	=76	=76
!	!LO:N:vis=2	!	!
8E-\L	8cc\L	2ccc 2cc/	.
8A-\	8gg-X\	.	.
8c\	8aa-\	.	.
8g-X\	8gg-\	.	.
*Xped	*	*	*
8c\	8b-\	4bb-/	.
8A-\J	8gg-\J	.	.
!!LO:LB:g=original
=77	=77	=77	=77
*ped	*	*	*
(8F\L	8aa- 8a-\)	4ryy	.
8A-\	8re	.	<
*clefG2	*	*	*
*	*v	*v	*
*	*8va	*
*	*^	*
8d-\	(8ccc/L	4aa-\	.
8f\	8ddd-/	.	.
8a-\	8eee-/	4ryy	.
8dd-\J	8fff/J	.	.
=78	=78	=78	=78
*Xped	*	*	*
8ff\L	8ddd-\L	8aaa-/	[
!	!	!	!LO:DY:t=%s leggiero
8dd-\	8aa-\	8ryy	pp
8b-\	8eeen\	4ryy	.
8dd-\	8gggn\	.	.
8cc-X\	8aa-\	8fff/	.
8a-\J	8ff\J	8ryy	.
*	*v	*v	*
*	*X8va	*
=79	=79	=79
*	*^	*
*ped	*	*	*
8g/L	8bb-\L	8eee-/	.
8b-/	8ee-\	8ryy	.
8g/	8gg\	4ryy	.
8e-/	8bb-\	.	.
8d-/	8ee-\	8ccc/	.
*Xped	*	*	*
8e-/J	8cc\J)	8ryy	.
*	*v	*v	*
*clefF4	*	*
=80	=80	=80
*ped	*	*
!	!LO:TX:b:i:t=poco rit.	!
.	(8qaa-/	.
8c\L	2a-/)	.
8e-\	.	.
8c\	.	.
8E-\J	.	.
8AA-/)	4r	.
8r	.	.
*Xped	*	*
=81||	=81||	=81||
*k[f#c#g#d#]	*k[f#c#g#d#]	*
!	!LO:TX:b:i:t=dolce	!
!	!LO:TX:a:B:t=Quasi Scherzando, ma un poco più lento.	!
8r	4g# 4e 4B/	.
*ped	*	*
8EE'/L	.	.
8BB'/	8r	.
8E'/J	(>8g#/	.
*Xped	*	*
4F#^\	4a 4B 4G#^/)	.
=82	=82	=82
8r	4g# 4e 4B/	.
!LO:TX:b:i:t=simile	!	!
8EE'\L	.	.
8BB'\	8r	.
8G#'\J	(>8g#/	.
4A#X^\	4f# 4e 4c#^>/)	.
=83	=83	=83
8r	4dd# 4f# 4d#/	.
8BB'\L	.	.
8F#'\	8r	.
8B'\J	(8dd#\	<
4c#^<\	4ee 4a 4f#X^\)	.
!!LO:LB:g=original
=84	=84	=84
8r	4dd# 4b 4f#/	.
8BB'\L	.	.
8F#'\	8r	.
8d#'\J	(8dd#\	.
4e#X^\	4cc# 4b 4g#^>/)	.
=85	=85	=85
8r	4gg# 4ddn 4g#\	.
8C#X'\L	.	.
8B'\	8r	.
8dn'\J	(8gg#\	.
8c#'\L	4aa 4cc# 4a^\)	.
8F#'\J	.	.
=86	=86	=86
8r	4gg# 4b#X 4g#\	[
8G#'\L	.	.
8B#X'\	8r	.
8d#'\	(8ff#\	.
8c#'\	4ee 4cc# 4g#^\)	.
8e'\J	.	.
=87	=87	=87
*	*^	*
8r	4dd# 4f##X 4d#/	2ryy	>
8D#'\L	.	.	.
8F##X'\	8r	.	.
8A#X'\	(>8cc#/	.	.
8G#'\	8b/L	[4d#\	.
8B'\J	8a#X/J)	.	.
*	*v	*v	*
=88	=88	=88
*^	*	*
*ped	*	*	*
8r	8ryy	4an 4d#/]	.
(8BB/L	[4.BB\	.	.
!	!	!LO:TX:b:i:t=ritard	!
8F#/	.	8r	.
8G#/J	.	(>8g#/	.
*Xped	*	*	*
4An/)	4BB\]	4f# 4d#/)	]]
*v	*v	*	*
=89	=89	=89
*	*^	*
!	!LO:TX:a:t=a tempo	!	!
8r	4g# 4e 4B/	2ryy	.
8EE'/L	.	.	.
8BB'/	8r	.	.
8E'/J	(>8g#'/	.	.
[4F#^\	4a^>/	8B#X\L	.
.	.	8c#\J	.
*	*v	*v	*
=90	=90	=90
8F#\L]	8g#L 8c##X/	.
(8BB\	8f#J 8d#/	.
*ped	*	*
8c#\	4f# 4d#'/)	.
8F#\	.	.
8B\	4f# 4d#'/	.
*Xped	*	*
8F#\J)	.	.
!!LO:LB:g=original
=91	=91	=91
*	*^	*
8r	4dd# 4f# 4d#/	2ryy	.
8BB'\L	.	.	.
8F#'\	8r	.	.
8B'\J	8dd#'\	.	.
[4c#^\	(4ee^/	8f##X\L	.
.	.	8g#\J	.
*	*v	*v	*
=92	=92	=92
8c#\L]	8dd#L 8g##X/	.
(8F#\	8cc#J 8a#X/	.
*ped	*	*
8g#\	4cc# 4a#'/	<
8c#\	.	.
8f#\	4cc# 4a#'/)	.
*Xped	*	*
8c#\J)	.	.
=93	=93	=93
8r	4bb 4dd# 4b\	.
8G#'\L	.	.
8B'\	8r	.
8c#'\	(8bb\	.
8d#'\	4cc# 4b^\)	.
8e#X'\J	.	.
=94	=94	=94
8f#'\L	4gg# 4dd# 4b\	.
8F#'\	.	.
8B'\	8r	.
8d#'\J	(8gg#\	[[
4f#^\	4ff# 4dd# 4b^\)	.
=95	=95	=95
*	*^	*
8r	4ee 4b 4g#\	2ryy	.
8FF#'/L	.	.	.
8C#'/	8r	.	.
8E'/J	(8ee\	.	.
4F#^\	8cc#/L	4a#X 4e\	.
.	8dd#/J)	.	.
=96	=96	=96	=96
!!LO:TX:a:B:t=1.
*>A1	*>A1	*>A1	*>A1
8r	4cc# 4f# 4e/	2ryy	>
8BB'\L	.	.	.
8F#'\	8r	.	.
8A#X'\J	(8cc#\	.	.
4B\	8b/L	4f# 4d#\	.
.	8an/J)	.	]]
=97:|!	=97:|!	=97:|!	=97:|!
!!LO:TX:a:B:t=2.
*>A2	*>A2	*>A2	*>A2
8r	4cc# 4f# 4e/	2ryy	>
8BB'\L	.	.	.
8F#'\	8r	.	.
8A#X'\J	(>8cc#'>/	.	.
4B\	8b/L	4f# 4d#\	]]
.	8a#X/J)	.	.
!!LO:PB:g=original
=98!|:	=98!|:	=98!|:	=98!|:
*>B	*>B	*>B	*>B
!	!LO:TX:a:i:t=con gran espressione	!	!
8r	(4.an/	2fn 2dn\	sfz >
8B\L	.	.	.
(8c#\	.	.	.
8B\	8g#/	.	.
8A\	4b/)	4f 4d\	]
8G#\J	.	.	.
=99	=99	=99	=99
*ped	*	*	*
8A/L)	([2cc#^:/	2.e: 2.c#:\	.
(8AA/	.	.	.
8C#/	.	.	.
8E/J	.	.	.
*Xped	*	*	*
[4A\	8cc#/L]	.	.
.	8a/J)	.	.
=100	=100	=100	=100
8A\L])	(4.g#/	2d# 2cn\	sfz >
(8A\	.	.	.
8B\	.	.	.
8A\	8f#/	.	.
8G#\	4a/)	4d# 4c\	]
8F#\J	.	.	.
=101	=101	=101	=101
*ped	*	*	*
(8G#/L)	([2b^:/	2.d#: 2.B:\	.
8GG#/	.	.	.
8BB/	.	.	.
8D#/J	.	.	.
[4G#\	8b/L]	.	.
*Xped	*	*	*
.	8g#/J)	.	.
=102	=102	=102	=102
8G#\L])	(4.f#/	2dn 2B\	sfz >
(8G#\	.	.	.
8A\	.	.	.
8G#\	8e#X/	.	.
8F#\	4g#/)	4dn 4B\	]
8E#X\J	.	.	.
=103	=103	=103	=103
*ped	*	*	*
8F#/L)	([2a^:/	2.c#: 2.A:\	.
(<8FF#/	.	.	.
8AA/	.	.	.
8C#/J	.	.	.
4F#\)	8a/L]	.	.
*Xped	*	*	*
.	8f#/J	.	.
!!LO:LB:g=original
=104	=104	=104	=104
*ped	*	*	*
!	!LO:TX:a:i:t=ritard.	!	!
[2.F# [2.BB/	(8e/L)	[2.A\	.
.	8d#/	.	.
.	8a/	.	.
.	8f#/	.	.
.	8e/	.	.
.	8d#/J	.	.
=105	=105	=105	=105
*Xped	*	*	*
!	!LO:TX:a:t=a tempo	!	!
8F#] 8BB/]	8c#/L)	8A\]	.
8r	8B'/	8ryy	.
4r	8c#'/	2ryy	.
.	8d#'/	.	.
4r	8e'/	.	.
.	8f#'/J	.	.
=106	=106	=106	=106
8r	4g# 4e 4B/	2ryy	.
*ped	*	*	*
8EE'/L	.	.	.
8BB'/	8r	.	.
8E'/J	8g#'/	.	.
*Xped	*	*	*
[4F#^\	(4a/	(8B#X\L	.
.	.	8c#\J	.
*	*v	*v	*
=107	=107	=107
8F#\L]	8g#L 8c##X/	.
(8BB\	8f#J 8d#/))	.
*ped	*	*
8c#\	4f# 4d#'/	.
8F#\	.	.
8B\	4f# 4d#'/	.
*Xped	*	*
8F#\J)	.	.
=108	=108	=108
*	*^	*
8r	4dd# 4f# 4d#/	2ryy	.
*ped	*	*	*
8BB'\L	.	.	.
8F#'\	8r	.	.
8B'\J	(>8dd#/	.	.
*Xped	*	*	*
[4c#^\	4ee/	(8f##X\L	.
.	.	8g#\J	.
*	*v	*v	*
=109	=109	=109
8c#\L]	8dd#L 8g##X/	.
(8F#\	8cc#J 8a#X/))	.
*ped	*	*
8g#\	4cc# 4a#'/	.
8c#\	.	.
8f#\	4cc# 4a#'/	.
*Xped	*	*
8c#\J)	.	.
!!LO:LB:g=original
=110	=110	=110
*	*^	*
8r	4gg# 4ddn 4g#\	2ryy	.
*ped	*	*	*
8E#X'\L	.	.	.
8B'\	8r	.	.
8dn'\J	(8gg#\	.	.
*Xped	*	*	*
4c# 4F#^\	8aan^/L	4cc# 4an\	.
.	8ff#/J)	.	.
=111	=111	=111	=111
8r	4dd#X 4a 4d#X/	2ryy	.
*ped	*	*	*
8BB#X'\L	.	.	.
8F#'\	8r	.	.
8A'\J	(>8dd#/	.	.
*Xped	*	*	*
4G# 4C#^\	8ee/L	4g# 4e^\	.
.	8a#X/J)	.	.
=112	=112	=112	=112
*^	*	*	*
8rGG	2ryy	4cc# 4g# 4e/	4ryy	.
*ped	*	*	*	*
8BB'\L	.	.	.	.
8E'\	.	8r	4ryy	.
8G#'\J	.	(>8b/	.	.
*Xped	*	*	*	*
(8F#/L	4BB\	8a/L	4d#\	.
8A/J)	.	8f#/J)	.	.
*v	*v	*	*	*
*	*v	*v	*
=113	=113	=113
!!LO:TX:a:B:t=1.
*>B1	*>B1	*>B1
8r	4f# 4B 4A/	.
*ped	*	*
8EE'/L	.	.
8BB'/	8r	.
8D#'/J	(>8f#/	.
*Xped	*	*
8E'\	8eL 8B 8G#/	.
8r	8b/J)	.
=114:|!	=114:|!	=114:|!
!!LO:TX:a:B:t=2.
*>B2	*>B2	*>B2
8r	4f# 4B 4A/	.
*ped	*	*
8EE'/L	.	.
8BB'/	8r	.
8D#'/	(8f#/	.
8E'/	4e 4B 4G#/)	.
*Xped	*	*
8F#'/J	.	.
=115	=115	=115
*>C	*>C	*>C
*ped	*	*
!	!LO:TX:a:B:t=Tempo I.	!
4G#\	4r	p
4r	(<12e/L	.
!	!LO:TX:b:i:t=una corda	!
.	12f#/	.
.	12e/J	.
4CC#'/	12A/L	.
*Xped	*	*
.	12G#/	.
.	12A/J	.
!!LO:LB:g=original
=116	=116	=116
*ped	*	*
4E 4GG#'/	12e/L	.
.	12f#/	.
.	12e/J	.
*Xped	*	*
4CC##X'/	12A#X/L	.
.	12G##X/	.
.	12G##/J	.
4E 4GG#'/	12e/L	.
.	12f#/	.
.	12e/J	.
=117	=117	=117
*ped	*	*
4DD#'/	12A#X/L	<
.	12e/	.
.	12d#/J	.
4F##X 4AA#X'/	12a#X\L	.
.	12a#\	.
.	12dd#\J	.
4DD#'/	12aa#X\L	.
*Xped	*	*
.	12ee\	.
.	12dd#\J	.
=118	=118	=118
*ped	*	*
4GG#'/	12cc#\L	.
.	12b\	.
.	12a#X\J	.
4B 4D#'\	12g#/L	.
*Xped	*	*
!	!LO:N:acc=n#	!
.	12f#X/	.
.	12e/J	.
4r	12d#/L	.
.	12e/	.
.	12c#/J	[
=119	=119	=119
*ped	*	*
4GG#'/	4B/)	.
=-	=-	=-
*k[b-e-a-d-]	*k[b-e-a-d-]	*
4c-X 4E-'\	(12cc\L	pp
.	12dd-\	.
*Xped	*	*
.	12cc\J	.
4AA-'/	12f-X/L	.
.	12e-/	.
.	12f-/J	.
!!LO:LB:g=original
=120	=120	=120
*ped	*	*
4c-X 4E-'\	12cc-X\L	.
.	12dd-\	.
.	12cc-\J	.
*Xped	*	*
4AAn'/	12fn/L	.
.	12en/	.
.	12f/J	.
4c- 4E-'\	12cc-\L	.
.	12dd-\	.
.	12cc-\J	.
=121	=121	=121
*ped	*	*
4BB-'/	12f/L	<
.	12cc-X/	.
.	12b-/J	.
4dn 4F'\	12ff\L	.
.	12ff\	.
.	12bb-\J	.
4BB-'/	12fff\L	.
*Xped	*	*
.	12ccc-X\	.
.	12bb-\J	.
=122	=122	=122
*ped	*	*
4E-'\	12aa-\L	.
.	12gg-X\	.
.	12ff\J	.
4g-X 4B-'\	12ee-\L	.
*Xped	*	*
.	12dd-\	.
.	12cc-X\J	.
4r	12b-\L	.
.	12cc-\	.
.	12a-\J	[[
=123	=123	=123
*	*^	*
*ped	*	*	*
!	!LO:TX:b:i:t=tre corde	!	!
4EE-'/	4g-X/)	4ryy	.
!	!	!	!LO:HP:t=crescendo
4B-- 4E-'\	12g-\L	12ryy	<
.	12ccn\	6cc/	.
.	12g-\J	.	.
4EE-'/	12cn/L	4ryy	.
*Xped	*	*	*
.	12g-/	.	.
.	12c/J	.	.
!!LO:PB:g=original
=124	=124	=124	=124
*ped	*	*	*
!	!LO:TX:b:i:t=poco a poco	!	!
4B-- 4D-'\	12g-X\L	12ryy	.
.	12ee--\	6ee--^>/	.
.	12g-\J	.	.
*Xped	*	*	*
4DD-'/	12d-/L	4ryy	.
.	12g-/	.	.
.	12d-/J	.	.
[4B-- (<4D-^\	12g-\L	12ryy	.
.	12dd-\	6dd-/	.
.	12d-\J	.	.
=125	=125	=125	=125
!LO:TX:b:i:t=simile	!	!	!
4B--] 4C\)	12g-X\L	12ryy	.
.	12ff-X\	6ff-/	.
.	12g-\J	.	.
4CC'/	12f-X/L	4ryy	.
.	12g-/	.	.
.	12f-/J	.	.
4B-- 4C'\	12g-\L	12ryy	.
.	12ee-\	6ee-/	.
.	12e-\J	.	.
=126	=126	=126	=126
4A- 4D-'\	12a-\L	12ryy	.
.	12gg-X\	6gg-/	.
.	12a-\J	.	.
4DD-'/	12g-X/L	4ryy	.
.	12a-/	.	.
.	12g-/J	.	.
(4A- (4D-^\	12a-\L	12ryy	.
.	12ff-X\	6ff-/	.
.	12f-X\J	.	.
=127	=127	=127	=127
4c-X 4E-\))	12a-\L	12ryy	.
.	12ee-\	6ee-/	.
.	12a-\J	.	.
4EE-/	12e-/L	4ryy	.
.	12a-/	.	.
.	12e-/J	.	.
(4B- 4F-X^\	12a-\L	12ryy	.
.	12dd-\	6dd-/	.
.	12d-\J	.	.
!!LO:LB:g=original
=128	=128	=128	=128
4c-X 4E-\)	12a-\L	12ryy	.
.	12ff-X\	6ff-/	.
.	12a-\J	.	.
4EE-/	12e-/L	4ryy	.
.	12a-/	.	.
.	12e-/J	.	.
(<[4c- 4E-^\	12a-\L	12ryy	.
.	12ee-\	6ee-/	.
.	12d-\J	.	.
=129	=129	=129	=129
4c-] 4Fn\)	(12a-\L	12ryy	.
.	12ddn\	6dd/	.
.	12a-\J	.	.
4EE-/	12dn/L	4ryy	.
.	12a-/	.	.
.	12d/J	.	.
(4Dn (4C-X^/	12A-/L	12ryy	.
.	12fn/	6ryy	.
.	12A-/J	.	.
*	*v	*v	*
=130	=130	=130
4E- 4BB-/))	12G/L	.
.	12B-/	.
.	12F/J	<
4EE-/	16G/LL	.
.	16A-/	.
.	16B-/	.
.	16c/JJ	.
4B- 4E-'\	24d-/LL	.
.	24e-/	.
.	24f/	.
.	24g/	.
.	24a-/	.
.	24b-/JJ	[[
=131	=131	=131
*ped	*	*
8AA-\L	8cc\)	.
8E-\	8r	.
8A-\	4.ccc 4.cc\	f
8c\	.	.
8A-\	.	.
*Xped	*	*
8E-\J	(8ff\	.
!!LO:LB:g=original
=132	=132	=132
8BB-\L	2aa- 2a-^\	.
8E-\	.	.
8G\	.	.
8d-\	.	.
8G\	4gg 4g\)	.
8E-\J	.	.
=133	=133	=133
*ped	*	*
8C\L	4r	.
8E-\	.	.
8A-\	4.aa- 4.a-\	.
8e-\	.	.
8A-\	.	.
*Xped	*	*
8E-\J	(8cc\	.
=134	=134	=134
8D-\L	2gg 2g^\	.
8G\	.	.
8B-\	.	.
8e-\	.	.
8B-\	4ff 4f\	.
8G\J	.	.
=135	=135	=135
*ped	*	*
(8C\L	4ee- 4e-\)	<
8E-\	.	.
8A-\	(4aa- 4a-\	.
8c\	.	.
*clefG2	*	*
8e-\	4ccc 4cc\	.
8a-\J	.	.
=136	=136	=136
*Xped	*	*
8g/L	4eee- 4ee-\)	.
8b-/	.	.
8b--/	(4ccc 4cc\	.
8g-X/	.	.
8f/	4ddd- 4dd-\	[[
8a-/J	.	.
!!LO:LB:g=original
=137	=137	=137
8gn/L	4bb- 4b-\	>
8f-X/	.	.
8e-/	4ccc 4cc\	.
8g-X/	.	.
8fn/	4aa- 4a-\	.
8dn/J	.	.
=138	=138	=138
*ped	*	*
8d-X/L	2bb- 2b-\	.
8gn/	.	.
8e-/	.	.
8d-/	.	.
*clefF4	*	*
8G/	4ee- 4e-/)	]]
*Xped	*	*
8E-/J)	.	.
=139	=139	=139
*ped	*	*
8AA-\L	4r	.
8E-\	.	.
!	!LO:TX:b:i:t=con gran espressione	!
8A-\	4.ccc 4.cc\	.
8c\	.	.
8A-\	.	.
*Xped	*	*
8E-\J	(8ff\	.
=140	=140	=140
8BB-\L	2aa- 2a-^\	.
8E-\	.	.
8G\	.	.
8d-\	.	.
8G\	4gg 4g\)	.
8E-\J	.	.
=141	=141	=141
*ped	*	*
8C\L	4r	.
8E-\	.	.
8A-\	4.eee- 4.ee-\	.
8e-\	.	.
8A-\	.	.
*Xped	*	*
8E-\J	(8aa-\	.
!!LO:LB:g=original
=142	=142	=142
8E-\L	2ccc 2cc^\	.
8A-\	.	.
8c\	.	.
8g-X\	.	.
8c\	4bb- 4b-\	.
8A-\J	.	.
=143	=143	=143
*ped	*	*
(8F/L	4aa- 4a-\)	<
8A-/	.	.
*clefG2	*	*
8d-/	(4ddd- 4dd-\	.
8f/	.	.
8a-/	4fff 4ff\	.
8dd-/J	.	.
=144	=144	=144
8ff\L	4aaa- 4aa-\)	.
*Xped	*	*
8dd-\	.	.
8b-\	(4ggg 4gg\	.
8dd-\	.	.
8cc-X\	4fff 4ff\	[[
8a-\J	.	.
=145	=145	=145
*ped	*	*
8g/L	4eee- 4ee-\)	>
8b-/	.	.
8g/	(4bb- 4b-\	.
8e-/	.	.
8d-/	4ccc 4cc\	.
*Xped	*	*
8e-/J	.	.
*clefF4	*	*
=146	=146	=146
*ped	*	*
8c\L	4aa- 4a-\)	.
8e-\	.	.
8c\	4r	.
8E-\	.	.
8A-\	4r	.
*Xped	*	*
8E-\J)	.	]]
!!LO:PB:g=original
=147	=147	=147
*	*^	*
*ped	*	*	*
!	!	!	!LO:DY:t=%s legg.
8AA-\L	4r	4ryy	p
8E-\	.	.	.
8A-\	8cc\L	(>4ccc/	.
8c\	8ee-\	.	.
8A-\	8ff\	4ff/	.
8E-\J	8ee-\J	.	.
*Xped	*	*	*
=148	=148	=148	=148
!	!LO:N:vis=2	!	!
8BB-\L	8a-\L	2aa- 2a-^>/	.
8E-\	8dd-\	.	.
8G\	8ee-\	.	.
8d-\	8dd-\	.	.
8G\	8g\	4gg 4g/)	.
8E-\J	8dd-\J	.	.
=149	=149	=149	=149
*ped	*	*	*
8C\L	4r	4ryy	.
8E-\	.	.	.
8A-\	8a-\L	(>4.aa-/	.
8e-\	8ee-\	.	.
8A-\	8ff\	.	.
8E-\J	8cc\J	8cc/	.
*Xped	*	*	*
=150	=150	=150	=150
!	!LO:N:vis=2	!	!
8D-\L	8g\L	2gg 2g^>/	.
8G\	8b-\	.	.
8B-\	8cc\	.	.
8e-\	8b-\	.	.
8B-\	8f\	4ff/	.
8G\J	8b-\J	.	.
!!LO:LB:g=original
=151	=151	=151	=151
*ped	*	*	*
(8C\L	8ee- 8e-/)	4ryy	<
8E-\	8r	.	.
8A-\	(8gg/L	4ee-\	.
8c\	8aa-/	.	.
*clefG2	*	*	*
8e-\	8bb-/	4ryy	.
*Xped	*	*	*
8a-\J	8ccc/J	.	.
=152	=152	=152	=152
8g/L	8bb-\L	8eee-/	[[
!	!	!	!LO:DY:t=%s legg.
8b-/	8ee-\	8ryy	pp
8b--/	8bb-\	4ryy	[
8g-X/	8ccc\	.	.
8f/	8aa-\	8ddd-/	.
8a-/J	8dd-\J	8ryy	.
=153	=153	=153	=153
8gn/L	8ryy	8aa-\L	.
8f-X/	8ryy	8bb-\	.
8e-/	8ccc/	8gg-X\	.
8g-X/	8ryy	8cc\	.
8fn/	8ryy	8ggn\	.
8dn/J	8ryy	8aa-\J	.
=154	=154	=154	=154
*ped	*	*	*
8d-X/L	8ff\L	8bb-/	.
8g/	8dd-\	8ryy	.
8e-/	8ff\	4ryy	.
8d-/	8gg\	.	.
*clefF4	*	*	*
*Xped	*	*	*
8G/	8b-\	8ee-/	.
8E-/J)	8dd-\J)	8ryy	.
!!LO:LB:g=original
=155	=155	=155	=155
*ped	*	*	*
!	!LO:N:vis=2	!	!LO:DY:t=%s ben marcato
8AA-\L	(8cc\L	2cc^>/	p
8E-\	8ee-\	.	.
8A-\	8ccc\	.	.
8c\	8gg\	.	.
8A-\	8f\	4ff 4f/	.
8E-\J	8ee-\J	.	.
*Xped	*	*	*
=156	=156	=156	=156
!	!LO:N:vis=2	!	!
8BB-\L	8a-\L	2aa- 2a-/	.
!	!LO:TX:b:i:t=legg.	!	!
8E-\	8dd-\	.	.
8G\	8ee-\	.	.
8d-\	8dd-\	.	.
8G\	8g\	4gg/	.
8E-\J	8dd-\J)	.	.
=157	=157	=157	=157
*ped	*	*	*
!	!LO:TX:b:i:t=ben marcato	!	!
!	!LO:N:vis=2	!	!
8C\L	(8ee-\L	2ee-^>/	.
8E-\	8aa-\	.	.
8A-\	8eee-\	.	.
8e-\	8bb-\	.	.
8A-\	8a-\	4aa-/	.
*Xped	*	*	*
8E-\J	8ee-\J	.	.
=158	=158	=158	=158
!	!LO:TX:b:i:t=legg.	!	!
!	!LO:N:vis=2	!	!
8E-\L	8cc\L	2ccc 2cc/	.
8A-\	8gg-X\	.	.
8c\	8aa-\	.	.
8g-X\	8gg-\	.	.
8c\	8b-\	4bb- 4b-/	.
8A-\J	8gg-\J)	.	.
!!LO:LB:g=original
=159	=159	=159	=159
*ped	*	*	*
(8F\L	8aa- 8a-\	4ryy	.
8A-\	8r	.	.
*clefG2	*	*	*
*	*v	*v	*
*	*8va	*
*	*^	*
8d-\	&(8ccc/L	4aa-\	.
8f\	8ddd-/	.	.
8a-\	8eee-/	4ryy	.
8dd-\J	8fff/J	.	.
=160	=160	=160	=160
*Xped	*	*	*
8ff\L	8ddd-\L	8aaa-/	.
8dd-\	8aa-\	8ryy	.
8b-\	8eeen\	4ryy	.
8dd-\	8ggg\	.	.
8cc-X\	8aa-\	8fff/	.
8a-\J	8ff\J	8ryy	.
*	*v	*v	*
*	*X8va	*
=161	=161	=161
*	*^	*
8g/L	8bb-\L	8eee-/	>
8b-/	8ee-\	8ryy	.
8g/	8gg\	2ryy	.
8e-/	8bb-\	.	.
8d-/	8ccc\	.	.
8e-/J	8cc\J&)	.	.
*	*v	*v	*
*clefF4	*	*
=162	=162	=162
*ped	*	*
.	(<8qaa-/	.
8c\L	2a-/)	]
8e-\	.	.
8c\	.	.
8A-\	.	.
8E-\	4r	.
[<8AA-\J	.	.
!!LO:LB:g=original
=163	=163	=163
*^	*	*
*	*^	*	*
4A-/)	4AA-\]	4ryy	4r	.
*Xped	*	*	*	*
!	!	!	!LO:TX:b:i:t=dolce	!
2AA-/	[2AA-\	4ryy	(12e-\L	.
.	.	.	12f\	.
.	.	.	12e-\J	.
.	.	((4G-X/	12c\L	.
.	.	.	12B-\	.
.	.	.	12c\J	.
=164	=164	=164	=164	=164
*	*	*	*^	*
*ped	*	*	*	*	*
4F/)	4AA-\]	4r)yy	2.dn\)	4rccc	.
!	!	!	!	!	!LO:HP:a
2AA-/	[2AA-\	4ryy	.	(>4.ff/	>
.	.	(4F/	.	.	.
.	.	.	.	8a-/)	]
=165	=165	=165	=165	=165	=165
*Xped	*	*	*	*	*
4F-X/)	4AA-\]	4ryy	2.g/	4r	.
2AA-/	[2AA-\	4ryy	.	(>12d-X\L	.
.	.	.	.	12e-\	.
.	.	.	.	12d-\J	.
.	.	((4F-/	.	12B-\L	.
.	.	.	.	12A-\	.
.	.	.	.	12B-\J	.
=166	=166	=166	=166	=166	=166
*ped	*	*	*	*	*
4E-/)	4AA-\]	4r)yy	4r	2.c\)	.
!	!	!	!	!	!LO:HP:a
2AA-/	[2AA-\	4ryy	(4.ee-/	.	>
.	.	(4E-/	.	.	.
.	.	.	8g-X/)	.	]
!!LO:PB:g=original
=167	=167	=167	=167	=167	=167
*Xped	*	*	*	*	*
4Dn/)	4AA-\]	4ryy	2.f/	4r	.
2AA-/	[2AA-\	4ryy	.	(>12c-X\L	.
.	.	.	.	12d-\	.
.	.	.	.	12c-\J	.
.	.	(4D/	.	12A-\L	.
.	.	.	.	12G\	.
.	.	.	.	12A-\J	.
=168	=168	=168	=168	=168	=168
*ped	*	*	*	*	*
4D-X/)	4AA-\]	4ryy	4r	[2.B-X\)	.
!	!	!	!	!	!LO:HP:a
2AA-/	[2AA-\	4ryy	(4.dd-/	.	>
.	.	(4D-/	.	.	]]
.	.	.	8f-X/	.	.
=169	=169	=169	=169	=169	=169
*Xped	*	*	*	*	*
4E-/)	4AA-\]	4ryy	4e-/)	4B-\]	.
*ped	*	*	*	*	*
!	!	!	!	!	!LO:HP:a
2AA-/	[2AA-\	4ryy	(4.bb-/	2ryy	>
.	.	(4F-X/	.	.	]]
.	.	.	8dd-/	.	.
*v	*v	*v	*	*	*
*	*v	*v	*
*Xped	*	*
=170	=170	=170
*	*ped	*
8E-L 8AA-]\)	4cc\)	.
(8AA-\	.	.
8E-\	4r	.
8A-\	.	.
8c\	4r	.
8e-\J	.	.
*clefG2	*	*
!!LO:LB:g=original
=171	=171	=171
*^	*	*
*	*^	*	*
*	*	*	*Xped	*
4a-/)	4ryy	4ryy	4r	.
[<2A-/	2A-\	4ryy	(>12eee-/L	.
.	.	.	12fff/	.
.	.	.	12eee-/J	.
.	.	(4g-X/	12ccc/L	.
.	.	.	12bb-/	.
.	.	.	12ccc/J	.
=172	=172	=172	=172	=172
*	*	*	*^	*
4f/)	4A-\]	4ryy	2.dddn/)	4r	.
*	*	*	*	*ped	*
[<2A-/	2A-\	4ryy	.	(>4.aa-\	>
.	.	(4f/	.	.	.
.	.	.	.	8cc-X\	]
=173	=173	=173	=173	=173	=173
*	*	*	*	*Xped	*
4f-X/)	4A-\]	4ryy	4r	8b-\)	.
.	.	.	.	8r	.
[<2A-/	2A-\	4ryy	(>12ddd-X/L	2ryy	.
.	.	.	12eee-/	.	.
.	.	.	12ddd-/J	.	.
.	.	(4f-X/	12bb-/L	.	.
.	.	.	12aa-/	.	.
.	.	.	12bb-/J	.	.
!!LO:LB:g=original
=174	=174	=174	=174	=174	=174
4e-/)	4A-\]	4ryy	2.ccc/)	4r	.
*	*	*	*	*ped	*
[<2A-/	2A-\	4ryy	.	(>4.gg-X\	>
.	.	(4e-/	.	.	.
.	.	.	.	8b--\	]
=175	=175	=175	=175	=175	=175
*	*	*	*	*Xped	*
4dn/)	4A-\]	4ryy	4rgg	8a-\)	.
.	.	.	.	8r	.
[<2A-/	2A-\	4ryy	(12ccc-X/L	2ryy	.
.	.	.	12ddd-/	.	.
.	.	.	12ccc-/J	.	.
.	.	(4d/	12aa-/L	.	.
.	.	.	12gg/	.	.
.	.	.	12aa-/J	.	.
=176	=176	=176	=176	=176	=176
4d-X/)	4A-\]	4ryy	[2.bb-/)	4r	.
*	*	*	*	*ped	*
[<2A-/	2A-\	4ryy	.	(>4.ff-X\	>
.	.	(4d-/	.	.	.
.	.	.	.	8a-\	]
=177	=177	=177	=177	=177	=177
*	*	*	*	*Xped	*
4e-/)	4A-\]	4ryy	4bb-/]	(2.g\)	.
*	*	*	*	*ped	*
2A-/	[2A-\	4ryy	(4.ee-/	.	.
.	.	(4f-X/	.	.	.
.	.	.	8dd-/	.	.
*v	*v	*v	*	*	*
!!LO:LB:g=original
=178	=178	=178	=178
*	*	*Xped	*
!	!	!	!LO:HP:t=dimin-sempre:dur=4qe:ext=ud:problem=text with extention lines
8e-L 8A-]/)	4cc/)	4a-\)	>
(<8fn/	.	.	.
8e-/	4r	2ryy	.
8c/	.	.	.
*clefF4	*	*	*
8A-/	4r	.	.
8E-/J	.	.	.
*	*v	*v	*
=179	=179	=179
*^	*	*
*	*^	*	*
4F-X\)	4ryy	4ryy	4r	.
*	*	*	*ped	*
2AA-/	[2AA-\	4ryy	(4.b-/	>
.	.	(4F-/	.	.
.	.	.	8d-/	]]
*v	*v	*v	*	*
=180	=180	=180
*	*Xped	*
8E-L 8AA-/])	4e- 4c/)	.
(8Fn/	.	.
8E-/	4r	.
8C/	.	.
8AA-/	4r	.
8EE-/J	.	.
=181	=181	=181
*^	*	*
*	*^	*	*
4FF-X/)	4ryy	4ryy	4r	.
*	*	*	*ped	*
2AAA-/	[2AAA-\	4ryy	(4.d-/	.
.	.	(4FF-/	.	.
.	.	.	8G/	.
*v	*v	*v	*	*
*	*Xped	*
!!LO:LB:g=original
=182	=182	=182
*ped	*	*
(8EE-L 8AAA-/])	4c 4A-/)	.
8AAA-/	.	.
8EE-/	8r	.
!LO:TX:b:i:t=rapidamente	!	!
8C/	(8A-/L	<
8E-/	8c/	.
8A-/J	8e-/J	.
=183	=183	=183
8c\L	8f/L	.
8E-\	8c/	.
8A-\	8e-/	.
8c\	8a-/	.
*clefG2	*	*
8e-\	8cc/	.
8a-\J	8ee-/J	[
=184	=184	=184
8cc\L	8ff\L	.
8e-\	8cc\	>
8a-\	8ee-\	.
8cc\	8aa-\	.
8ee-\	8ccc\	.
8aa-\J	8eee-\J	.
=185	=185	=185
8ccc\L	8fff\L	.
8ee-\	8eee-\	.
8aa-\	8fff\	.
8ee-\	8eee-\	.
8aa-\	8fff\	.
8ee-\J	8eee-\J	]]
=186	=186	=186
4a-/)	4cccc\)	.
4r	4r	.
4r	4r	.
*clefF4	*	*
=187	=187	=187
4a- 4e- 4A-\	4ccc 4ee- 4cc\	ff
4r	4r	.
4r	4r	.
=188	=188	=188
4A- 4E- 4AA-\	4a- 4e- 4c/	.
4r	4r	.
*Xped	*	*
4r	4r	.
==	==	==
*-	*-	*-
!!!system-decoration: {(s1,s2)}
!!!ENC: Katarzyna Serwa
!!!END: 2022-03-18
!!!AIN: 2 piano
!!!ENC: Berenika Jozajtis
!!!END: 2022-03-09
!!!RDF**kern: > = above
!!!RDF**kern: < = below
